themes/SuiteP/images/p_pag_tools.svg

<?xml version="1.0" encoding="UTF-8" standalone="no"?>
<svg width="11px" height="192px" viewBox="0 0 11 192" version="1.1" xmlns="http://www.w3.org/2000/svg" xmlns:xlink="http://www.w3.org/1999/xlink">
    <!-- Generator: Sketch 3.8.3 (29802) - http://www.bohemiancoding.com/sketch -->
    <title>p_pag_tools</title>
    <desc>Created with Sketch.</desc>
    <defs></defs>
    <g id="Page-1" stroke="none" stroke-width="1" fill="none" fill-rule="evenodd">
        <g id="p_pag_tools" fill="#FFFFFF">
            <polygon id="Triangle-21" points="0 0 8 0 4 8"></polygon>
            <polygon id="Triangle-21" opacity="0.400000006" points="0 18 8 18 4 26"></polygon>
            <path d="M-3.65929509e-13,36 L1.68,36 L1.68,49.279 L-3.65929509e-13,49.279 L-3.65929509e-13,36 Z M7.056,41.894 C6.81799881,42.0106672 6.54733485,42.1039996 6.244,42.174 C6.54733485,42.2440003 6.81799881,42.3373327 7.056,42.454 L9.044,43.532 C9.17000063,43.592667 9.25983306,43.6684995 9.3135,43.7595 C9.36716693,43.8505005 9.394,43.9496661 9.394,44.057 L9.394,45.562 L3.724,42.601 L3.724,41.754 L9.394,38.786 L9.394,40.291 C9.394,40.3983339 9.36716693,40.4974995 9.3135,40.5885 C9.25983306,40.6795005 9.17000063,40.7576663 9.044,40.823 L7.056,41.894 Z" id="|&lt;"></path>
            <path d="M3.266,62.995 C3.02799881,63.1116672 2.75733485,63.2049996 2.454,63.275 C2.75733485,63.3450003 3.02799881,63.4383328 3.266,63.555 L5.254,64.633 C5.38000063,64.693667 5.46983307,64.7694995 5.5235,64.8605 C5.57716694,64.9515005 5.604,65.0506661 5.604,65.158 L5.604,66.663 L-0.066,63.702 L-0.066,62.855 L5.604,59.887 L5.604,61.392 C5.604,61.4993339 5.57716694,61.5984995 5.5235,61.6895 C5.46983307,61.7805005 5.38000063,61.8586663 5.254,61.924 L3.266,62.995 Z" id="&lt;"></path>
            <path d="M0,77 L1.68,77 L1.68,90.279 L0,90.279 L0,77 Z M7.056,82.894 C6.81799881,83.0106672 6.54733485,83.1039996 6.244,83.174 C6.54733485,83.2440003 6.81799881,83.3373328 7.056,83.454 L9.044,84.532 C9.17000063,84.592667 9.25983307,84.6684995 9.3135,84.7595 C9.36716694,84.8505005 9.394,84.9496661 9.394,85.057 L9.394,86.562 L3.724,83.601 L3.724,82.754 L9.394,79.786 L9.394,81.291 C9.394,81.3983339 9.36716694,81.4974995 9.3135,81.5885 C9.25983307,81.6795005 9.17000063,81.7576663 9.044,81.823 L7.056,82.894 Z" id="|&lt;" opacity="0.400000006"></path>
            <path d="M3.266,103.995 C3.02799881,104.111667 2.75733485,104.205 2.454,104.275 C2.75733485,104.345 3.02799881,104.438333 3.266,104.555 L5.254,105.633 C5.38000063,105.693667 5.46983307,105.7695 5.5235,105.8605 C5.57716694,105.9515 5.604,106.050666 5.604,106.158 L5.604,107.663 L-0.066,104.702 L-0.066,103.855 L5.604,100.887 L5.604,102.392 C5.604,102.499334 5.57716694,102.5985 5.5235,102.6895 C5.46983307,102.7805 5.38000063,102.858666 5.254,102.924 L3.266,103.995 Z" id="&lt;" opacity="0.400000006"></path>
            <path d="M5.67,144.855 L5.67,145.702 L2.7000624e-13,148.663 L2.7000624e-13,147.158 C2.7000624e-13,147.050666 0.026833065,146.9515 0.0805,146.8605 C0.134166935,146.7695 0.22399937,146.693667 0.35,146.633 L2.338,145.555 C2.57600119,145.438333 2.84666515,145.345 3.15,145.275 C2.84666515,145.205 2.57600119,145.111667 2.338,144.995 L0.35,143.924 C0.22399937,143.858666 0.134166935,143.7805 0.0805,143.6895 C0.026833065,143.5985 2.7000624e-13,143.499334 2.7000624e-13,143.392 L2.7000624e-13,141.887 L5.67,144.855 Z" id="&gt;"></path>
            <path d="M5.67,124.362 L5.67,125.209 L0,128.17 L0,126.665 C0,126.557666 0.026833065,126.4585 0.0805,126.3675 C0.134166935,126.2765 0.22399937,126.200667 0.35,126.14 L2.338,125.062 C2.57600119,124.945333 2.84666515,124.852 3.15,124.782 C2.84666515,124.712 2.57600119,124.618667 2.338,124.502 L0.35,123.431 C0.22399937,123.365666 0.134166935,123.2875 0.0805,123.1965 C0.026833065,123.1055 0,123.006334 0,122.899 L0,121.394 L5.67,124.362 Z M7.714,118.608 L9.394,118.608 L9.394,131.887 L7.714,131.887 L7.714,118.608 Z" id="&gt;|"></path>
            <path d="M5.67,185.855 L5.67,186.702 L0,189.663 L0,188.158 C0,188.050666 0.026833065,187.9515 0.0805,187.8605 C0.134166935,187.7695 0.22399937,187.693667 0.35,187.633 L2.338,186.555 C2.57600119,186.438333 2.84666515,186.345 3.15,186.275 C2.84666515,186.205 2.57600119,186.111667 2.338,185.995 L0.35,184.924 C0.22399937,184.858666 0.134166935,184.7805 0.0805,184.6895 C0.026833065,184.5985 0,184.499334 0,184.392 L0,182.887 L5.67,185.855 Z" id="&gt;" opacity="0.400000006"></path>
            <path d="M5.67,165.362 L5.67,166.209 L0,169.17 L0,167.665 C0,167.557666 0.026833065,167.4585 0.0805,167.3675 C0.134166935,167.2765 0.22399937,167.200667 0.35,167.14 L2.338,166.062 C2.57600119,165.945333 2.84666515,165.852 3.15,165.782 C2.84666515,165.712 2.57600119,165.618667 2.338,165.502 L0.35,164.431 C0.22399937,164.365666 0.134166935,164.2875 0.0805,164.1965 C0.026833065,164.1055 0,164.006334 0,163.899 L0,162.394 L5.67,165.362 Z M7.714,159.608 L9.394,159.608 L9.394,172.887 L7.714,172.887 L7.714,159.608 Z" id="&gt;|" opacity="0.400000006"></path>
        </g>
    </g>
</svg>

<?xml version="1.0" encoding="utf-8"?>
<!-- Generator: Adobe Illustrator 15.0.0, SVG Export Plug-In . SVG Version: 6.00 Build 0)  -->
<!DOCTYPE svg PUBLIC "-//W3C//DTD SVG 1.1//EN" "http://www.w3.org/Graphics/SVG/1.1/DTD/svg11.dtd">
<svg version="1.1" id="图层_1" xmlns="http://www.w3.org/2000/svg" xmlns:xlink="http://www.w3.org/1999/xlink" x="0px" y="0px"
	 width="11px" height="192px" viewBox="0 0 11 192" enable-background="new 0 0 11 192" xml:space="preserve">
<title>p_pag_tools</title>
<desc>Created with Sketch.</desc>
<g id="Page-1">
	<g id="p_pag_tools">
		<polygon id="Triangle-21" fill="#686868" points="0,0 8,0 4,8 		"/>
		<polygon id="Triangle-21_1_" opacity="0.15" fill="#686868" enable-background="new    " points="0,18 8,18 4,26 		"/>
		<path id="_x7C__x3C_" fill="#686868" d="M0,36h1.68v13.279H0V36z M7.057,41.894c-0.238,0.117-0.51,0.21-0.813,0.28
			c0.303,0.07,0.574,0.164,0.813,0.28l1.987,1.078c0.126,0.061,0.216,0.136,0.27,0.228c0.054,0.091,0.081,0.19,0.081,0.297v1.505
			l-5.67-2.961v-0.847l5.67-2.968v1.505c0,0.107-0.027,0.207-0.081,0.297c-0.054,0.091-0.144,0.169-0.27,0.235L7.057,41.894z"/>
		<path id="_x3C_" fill="#686868" d="M3.266,62.995c-0.238,0.117-0.509,0.21-0.812,0.28c0.303,0.07,0.574,0.164,0.812,0.28
			l1.988,1.078c0.126,0.061,0.216,0.137,0.27,0.228c0.054,0.091,0.081,0.19,0.081,0.298v1.505l-5.67-2.961v-0.847l5.67-2.968v1.505
			c0,0.107-0.027,0.207-0.081,0.297s-0.144,0.169-0.27,0.234L3.266,62.995z"/>
		<path id="_x7C__x3C__1_" opacity="0.15" fill="#686868" enable-background="new    " d="M0,77h1.68v13.279H0V77z M7.057,82.894
			c-0.238,0.117-0.51,0.21-0.813,0.28c0.303,0.07,0.574,0.164,0.813,0.28l1.987,1.078c0.126,0.061,0.216,0.136,0.27,0.228
			c0.054,0.091,0.081,0.19,0.081,0.297v1.505l-5.67-2.961v-0.847l5.67-2.968v1.505c0,0.107-0.027,0.207-0.081,0.297
			c-0.054,0.091-0.144,0.169-0.27,0.235L7.057,82.894z"/>
		<path id="_x3C__1_" opacity="0.15" fill="#686868" enable-background="new    " d="M3.266,103.995
			c-0.238,0.116-0.509,0.21-0.812,0.28c0.303,0.069,0.574,0.163,0.812,0.279l1.988,1.078c0.126,0.061,0.216,0.137,0.27,0.228
			s0.081,0.19,0.081,0.298v1.505l-5.67-2.961v-0.847l5.67-2.969v1.506c0,0.107-0.027,0.206-0.081,0.297s-0.144,0.169-0.27,0.234
			L3.266,103.995z"/>
		<path id="_x3E_" fill="#686868" d="M5.67,144.855v0.847L0,148.663v-1.505c0-0.107,0.027-0.207,0.081-0.298s0.144-0.167,0.27-0.228
			l1.988-1.078c0.238-0.116,0.509-0.21,0.812-0.279c-0.303-0.07-0.574-0.164-0.812-0.28l-1.988-1.071
			c-0.126-0.065-0.216-0.144-0.27-0.234S0,143.5,0,143.393v-1.506L5.67,144.855z"/>
		<path id="_x3E__x7C_" fill="#686868" d="M5.67,124.361v0.848L0,128.17v-1.505c0-0.107,0.027-0.206,0.081-0.298
			c0.054-0.091,0.144-0.166,0.27-0.227l1.988-1.078c0.238-0.117,0.509-0.211,0.812-0.28c-0.303-0.07-0.574-0.163-0.812-0.28
			l-1.988-1.07c-0.126-0.066-0.216-0.145-0.27-0.235S0,123.006,0,122.898v-1.504L5.67,124.361z M7.714,118.607h1.681v13.279H7.714
			V118.607z"/>
		<path id="_x3E__1_" opacity="0.15" fill="#686868" enable-background="new    " d="M5.67,185.855v0.847L0,189.663v-1.505
			c0-0.107,0.027-0.207,0.081-0.298s0.144-0.167,0.27-0.228l1.988-1.078c0.238-0.116,0.509-0.21,0.812-0.279
			c-0.303-0.07-0.574-0.164-0.812-0.28l-1.988-1.071c-0.126-0.065-0.216-0.144-0.27-0.234S0,184.5,0,184.393v-1.506L5.67,185.855z"
			/>
		<path id="_x3E__x7C__1_" opacity="0.15" fill="#686868" enable-background="new    " d="M5.67,165.361v0.848L0,169.17v-1.505
			c0-0.107,0.027-0.206,0.081-0.298c0.054-0.091,0.144-0.166,0.27-0.227l1.988-1.078c0.238-0.117,0.509-0.211,0.812-0.28
			c-0.303-0.07-0.574-0.163-0.812-0.28l-1.988-1.07c-0.126-0.066-0.216-0.145-0.27-0.235S0,164.006,0,163.898v-1.504L5.67,165.361z
			 M7.714,159.607h1.681v13.279H7.714V159.607z"/>
	</g>
</g>
</svg>
